src/qt/rpdchain/res/img/ic-check-faq.svg

<?xml version="1.0" encoding="UTF-8"?>
<svg width="24px" height="24px" viewBox="0 0 24 24" version="1.1" xmlns="http://www.w3.org/2000/svg" xmlns:xlink="http://www.w3.org/1999/xlink">
    <!-- Generator: Sketch 55.2 (78181) - https://sketchapp.com -->
    <title>Artboard</title>
    <desc>Created with Sketch.</desc>
    <g id="Artboard" stroke="none" stroke-width="1" fill="none" fill-rule="evenodd">
        <path d="M11.53125,16.7695312 C11.5234375,16.4882798 11.5195312,16.2773445 11.5195312,16.1367188 C11.5195312,15.3085896 11.6367176,14.593753 11.8710938,13.9921875 C12.0429696,13.5390602 12.3203106,13.0820336 12.703125,12.6210938 C12.9843764,12.2851546 13.4902307,11.7949251 14.2207031,11.1503906 C14.9511755,10.5058562 15.4257802,9.99218941 15.6445312,9.609375 C15.8632823,9.22656059 15.9726562,8.80859602 15.9726562,8.35546875 C15.9726562,7.53515215 15.652347,6.81445623 15.0117188,6.19335938 C14.3710905,5.57226252 13.5859421,5.26171875 12.65625,5.26171875 C11.757808,5.26171875 11.0078155,5.54296594 10.40625,6.10546875 C9.80468449,6.66797156 9.41015719,7.54686902 9.22265625,8.7421875 L7.0546875,8.484375 C7.25000098,6.88280449 7.8300733,5.65625426 8.79492188,4.8046875 C9.75977045,3.95312074 11.0351483,3.52734375 12.6210938,3.52734375 C14.3007896,3.52734375 15.64062,3.98437043 16.640625,4.8984375 C17.64063,5.81250457 18.140625,6.91796227 18.140625,8.21484375 C18.140625,8.9648475 17.9648455,9.65624684 17.6132812,10.2890625 C17.261717,10.9218782 16.5742239,11.6914017 15.5507812,12.5976562 C14.8632778,13.2070343 14.4140636,13.6562486 14.203125,13.9453125 C13.9921864,14.2343764 13.835938,14.5664044 13.734375,14.9414062 C13.632812,15.3164081 13.5742188,15.925777 13.5585938,16.7695312 L11.53125,16.7695312 Z M11.4023438,21 L11.4023438,18.5976562 L13.8046875,18.5976562 L13.8046875,21 L11.4023438,21 Z" id="?" fill="#FFFFFF" fill-rule="nonzero"></path>
    </g>
</svg>

<?xml version="1.0" encoding="utf-8"?>
<!-- Generator: Adobe Illustrator 28.1.0, SVG Export Plug-In . SVG Version: 6.00 Build 0)  -->
<svg version="1.1" id="Layer_1" xmlns="http://www.w3.org/2000/svg" xmlns:xlink="http://www.w3.org/1999/xlink" x="0px" y="0px"
	 viewBox="0 0 24 24" style="enable-background:new 0 0 24 24;" xml:space="preserve">
<style type="text/css">
	.st0{fill:#D1D5DB;}
</style>
<g id="Artboard">
	<path id="_x3F_" class="st0" d="M11.5,16.8c0-0.3,0-0.5,0-0.6c0-0.8,0.1-1.5,0.4-2.1c0.2-0.5,0.4-0.9,0.8-1.4
		c0.3-0.3,0.8-0.8,1.5-1.5s1.2-1.2,1.4-1.5S16,8.8,16,8.4c0-0.8-0.3-1.5-1-2.2s-1.4-0.9-2.4-0.9c-0.9,0-1.6,0.3-2.2,0.8
		s-1,1.4-1.2,2.6L7.1,8.5c0.2-1.6,0.8-2.8,1.7-3.7s2.2-1.3,3.8-1.3c1.7,0,3,0.5,4,1.4s1.5,2,1.5,3.3c0,0.8-0.2,1.4-0.5,2.1
		s-1,1.4-2.1,2.3c-0.7,0.6-1.1,1.1-1.3,1.3s-0.4,0.6-0.5,1s-0.2,1-0.2,1.8H11.5z M11.4,21v-2.4h2.4V21H11.4z"/>
</g>
</svg>
